X: 1
T: Ballykeale
M: 6/8
L: 1/8
R: jig
K: Dmix
c|:A=FA A2c|A=FA Adc| BGG DGG| BGB dcB|
A=FA A2c|A=FA A2a| bag fdc|1BGB dcB:|2 BGF GBd||
~g3 gag |fde fd^c| dgg gag |fd^c def|
g2a bag |fde fga |bag fdc |1BGF GBd:|2 BGB dcB||
